X:1
T:Psalm 112
L:1/4
M:12/4
I:linebreak $
K:F
V:1 treble nm="Pipe Organ" snm="Org."
V:1
 D2 A A G2 F2 E2 z2 |$ G2 A D F2 E2 D2 z2 |$[M:14/4] F2 G A B A F2 G2 A2 z2 |$ %3
w: Ge- luk- kig hy wat hom|ont- ferm en uit wil leen,|wat nooit by voor- spoed en ge- luk|
[M:12/4] A2 B G F2 E2 D4 |] %4
w: sy naas- te sal ver- druk.|

